archcraft-icons-qogir/files/Qogir/32/apps/preferences-log.svg

<svg width="32" height="32" version="1.1" xmlns="http://www.w3.org/2000/svg" xmlns:xlink="http://www.w3.org/1999/xlink">
 <g>
  <rect x="1.165e-5" y="1" width="32" height="30" rx="2" ry="2" opacity=".25" stroke-width="1.0351"/>
  <rect x="1" y="2" width="30" height="28" rx="1" ry="1" fill="#eee" stroke-width=".96825"/>
  <path d="m2 2c-0.55402 0-1 0.44599-1 1v5h30v-5c0-0.55401-0.44599-1-1-1z" fill="#e4e4e4" stroke-width="1.1859"/>
 </g>
 <rect x="27" y="4" width="2" height="2" rx="1" fill="#999"/>
 <rect x="1" y="8" width="30" height="1" ry="0" opacity=".25"/>
 <path d="m3 26h4v1h-4zm6 0h12v1h-12zm-6-2h4v1h-4zm6 0h14v1h-14zm-6-2h4v1h-4zm6 0h12v1h-12zm-6-2h4v1h-4zm6 0h14v1h-14zm-6-2h4v1h-4zm6 0h10v1h-10zm-6-2h4v1h-4zm6 0h16v1h-16zm-6-2h4v1h-4zm6 0h18v1h-18zm-6-2h4v1h-4zm6 0h12v1h-12z" fill="#808080"/>
</svg>

<svg xmlns="http://www.w3.org/2000/svg" width="32" height="32"><rect width="32" height="30" y="1" opacity=".25" rx="2" ry="2"/><rect width="30" height="28" x="1" y="2" fill="#eee" rx="1" ry="1"/><path fill="#e4e4e4" d="M2 2c-.554 0-1 .446-1 1v5h30V3c0-.554-.446-1-1-1z"/><rect width="2" height="2" x="27" y="4" fill="#999" rx="1"/><rect width="30" height="1" x="1" y="8" opacity=".25" ry="0"/><path fill="gray" d="M3 26h4v1H3zm6 0h12v1H9zm-6-2h4v1H3zm6 0h14v1H9zm-6-2h4v1H3zm6 0h12v1H9zm-6-2h4v1H3zm6 0h14v1H9zm-6-2h4v1H3zm6 0h10v1H9zm-6-2h4v1H3zm6 0h16v1H9zm-6-2h4v1H3zm6 0h18v1H9zm-6-2h4v1H3zm6 0h12v1H9z"/></svg>
